X: 13860
T: Fowler On The Moor, The
R: hornpipe
M: 4/4
K: Gmajor
|:G>E (3EEE c2 B>G|(3ABA G>E A>c B>A|G>E (3EEE c>A B>G|A>E G>E D2 D>E|
G>E (3EEE c2 B>G|(3ABA G>E A>c B>A|G>A B>c d2 B>G|1 (3AGE G>E D2 B>A:|2 (3AGE G>E D2 D>E||
G>A B>c d>G B>G|(3ABA G>E A>c B>A|G>A B>c d2 B>G|1 (3AGE G>E D2 D>E:|2 (3AGE G>E D2 B>A||

